src/images/icons/colors.svg

<svg width="32" height="32" viewBox="0 0 32 32" fill="currentColor" xmlns="http://www.w3.org/2000/svg">
<path d="M11.1667 22C11.1667 23.0126 10.3458 23.8334 9.33333 23.8334C8.3208 23.8334 7.49999 23.0126 7.49999 22C7.49999 20.9875 8.3208 20.1667 9.33333 20.1667C10.3458 20.1667 11.1667 20.9875 11.1667 22Z"/>
<path d="M16.3333 25.0424C16.3333 26.0549 15.5125 26.8757 14.5 26.8757C13.4875 26.8757 12.6667 26.0549 12.6667 25.0424C12.6667 24.0298 13.4875 23.209 14.5 23.209C15.5125 23.209 16.3333 24.0298 16.3333 25.0424Z"/>
<path d="M22.6667 23.8757C22.6667 24.8882 21.8458 25.709 20.8333 25.709C19.8208 25.709 19 24.8882 19 23.8757C19 22.8632 19.8208 22.0424 20.8333 22.0424C21.8458 22.0424 22.6667 22.8632 22.6667 23.8757Z"/>
<path d="M13.8333 7.87569C13.8333 8.88821 13.0125 9.70902 12 9.70902C10.9875 9.70902 10.1667 8.88821 10.1667 7.87569C10.1667 6.86317 10.9875 6.04235 12 6.04235C13.0125 6.04235 13.8333 6.86317 13.8333 7.87569Z"/>
<path d="M26.8333 18.8757C26.8333 19.8882 26.0125 20.709 25 20.709C23.9875 20.709 23.1667 19.8882 23.1667 18.8757C23.1667 17.8632 23.9875 17.0424 25 17.0424C26.0125 17.0424 26.8333 17.8632 26.8333 18.8757Z"/>
<path d="M20.84 14.2919C20.202 14.5606 19.716 13.597 20.3513 13.2606C21.0207 12.9061 21.5534 13.9329 20.84 14.2919Z"/>
<path d="M21.6551 15.6868C21.612 15.0207 20.6346 15.2236 20.6622 15.842C20.736 17.4984 19.8572 19.1077 18.417 19.9393C16.3487 21.1337 13.6242 20.4572 12.3548 18.4341C12.0121 17.8878 11.165 18.4193 11.5078 18.9655C13.0593 21.4383 16.3891 22.2651 18.917 20.8053C20.7114 19.7691 21.7887 17.7481 21.6551 15.6868Z"/>
<path d="M13.4074 2.78478C8.74329 3.8448 5.26036 6.88858 3.35232 11.5375C2.41344 13.8241 2.44373 17.6705 3.41289 20.5326C5.49702 26.7008 12.1778 30.3155 18.4803 29.3459C20.7449 28.9864 22.9527 28.0577 24.7496 26.6201C26.8242 24.9544 28.1265 22.9858 28.914 20.3811C29.444 18.6245 29.4743 16.3228 28.9897 14.9145C28.2174 12.6733 26.8091 11.3104 24.5528 10.6289C23.8865 10.4321 23.8107 10.5381 25.5219 9.25091C27.7025 7.61545 29.3077 5.79827 29.3077 4.98054C29.3077 4.82911 29.1563 4.54139 28.9897 4.35967C28.6868 4.02652 28.5657 4.01137 27.43 4.07195C23.8761 4.6691 20.3731 6.44075 17.5566 8.14546C17.2992 8.29689 17.0417 8.38775 16.9963 8.32718C16.8146 8.14546 16.8903 6.99458 17.1175 6.616C17.9049 5.22283 18.1169 4.63225 18.0261 4.16281C17.9049 3.64794 17.5718 3.22393 16.9357 2.79992C16.4057 2.46677 14.846 2.45163 13.4074 2.78478ZM16.5572 3.82966C17.0266 4.14766 16.9812 4.64739 16.4057 5.67712C15.9514 6.46457 15.906 6.64629 15.906 7.8426V9.16005L14.6946 10.0384C14.0283 10.5381 13.3165 11.0529 13.1045 11.1892C12.8925 11.3255 12.4079 11.7495 11.9991 12.113C11.3328 12.749 11.2419 12.7793 10.621 12.7187C9.54588 12.5976 8.72815 13.067 7.91042 14.3087C6.48696 16.4439 6.00238 17.6251 6.44153 17.8977C6.53239 17.9582 7.50155 17.9885 8.607 17.9885C10.1676 17.9885 11.9801 17.9955 12.7259 16.3682C12.8774 16.0199 13.1197 15.8382 13.6648 15.6413C15.7243 14.8993 16.5572 14.551 18.4198 13.597C20.5247 12.5218 21.3424 12.0827 21.9784 11.6587C22.4781 11.3407 24.0833 11.4921 25.1282 11.9767C25.9459 12.3553 26.9605 13.2336 27.3997 13.9301C28.2931 15.3687 28.5354 18.0945 27.9448 19.942C26.6119 24.1115 23.7439 26.755 19.7675 27.983C16.2686 29.0596 12.3508 28.385 9.31873 26.3778C5.80552 24.0912 3.71576 20.1994 3.71576 15.929C3.71576 12.4158 5.01807 9.47806 7.71355 6.97943C9.53073 5.26826 11.5145 4.26881 14.2403 3.69337C14.9974 3.52679 16.2392 3.60251 16.5572 3.82966ZM27.9297 5.58626C27.4602 6.23742 27.0665 6.616 26.0519 7.44887C25.5673 7.8426 25.0676 8.25146 24.9616 8.34232C24.7193 8.55432 24.4316 8.76633 24.1287 8.96319C23.6139 9.29634 21.4938 10.7047 21.3575 10.8107C21.2818 10.8864 21.0395 11.0227 20.8275 11.1287C20.6155 11.2347 19.9038 11.6132 19.2375 11.9918C18.5712 12.3553 17.9655 12.6581 17.9049 12.6581C17.5566 11.9918 16.6923 10.6101 16.4057 10.1898L16.7692 9.91721C17.2235 9.56892 18.8438 8.6149 19.9189 8.06974C20.3732 7.8426 21.0547 7.47916 21.4333 7.26715C21.8118 7.07029 22.5236 6.73714 23.0233 6.52514C23.523 6.32828 24.053 6.08599 24.1893 6.01027C24.689 5.7377 26.3699 5.22283 27.112 5.11683C28.1871 4.96539 28.3083 5.04111 27.9297 5.58626ZM16.86 13.2033C15.7819 13.922 14.4007 14.1954 13.2257 14.7176C13.0137 14.7933 12.9228 14.7176 12.7865 14.3996C12.6957 14.1573 12.5139 13.8393 12.3928 13.6879C12.1656 13.4456 12.1656 13.4001 12.4988 13.0821C13.0288 12.5975 15.2851 10.8561 15.4063 10.8561C15.6096 10.9585 16.86 13.0028 16.86 13.2033Z"/>
</svg>

<svg xmlns="http://www.w3.org/2000/svg" fill="currentColor" viewBox="0 0 32 32">
  <path d="M11.167 22A1.833 1.833 0 1 1 7.5 22a1.833 1.833 0 0 1 3.667 0Zm5.166 3.042a1.833 1.833 0 1 1-3.666 0 1.833 1.833 0 0 1 3.666 0Zm6.334-1.166a1.833 1.833 0 1 1-3.667 0 1.833 1.833 0 0 1 3.667 0Zm-8.834-16a1.833 1.833 0 1 1-3.666 0 1.833 1.833 0 0 1 3.666 0Zm13 11a1.833 1.833 0 1 1-3.666 0 1.833 1.833 0 0 1 3.666 0Zm-5.806-5.408a.5.5 0 1 0-.884.468l.037.07c.123.244.403.377.66.286a.467.467 0 0 0 .28-.639 5.531 5.531 0 0 0-.093-.185Zm.628 2.219c-.02-.314-.342-.502-.639-.397a.552.552 0 0 0-.354.552 4.497 4.497 0 0 1-2.245 4.097 4.5 4.5 0 0 1-6.062-1.505.5.5 0 1 0-.847.531 5.5 5.5 0 0 0 10.147-3.278Z"/>
  <path d="M13.407 2.785C8.743 3.845 5.26 6.889 3.352 11.537c-.939 2.287-.908 6.133.06 8.996 1.5 4.436 5.77 8.01 10.525 8.798.97.166 3.56.166 4.543.015.954-.151 2.68-.621 2.878-.772a2.42 2.42 0 0 1 .514-.228c.53-.166 2.12-1.12 2.878-1.726 2.074-1.666 3.377-3.634 4.164-6.239.53-1.756.56-4.058.076-5.466-.773-2.242-2.18-3.605-4.437-4.286-.666-.197-.742-.09.969-1.378 2.18-1.636 3.786-3.453 3.786-4.27 0-.152-.152-.44-.318-.621-.303-.333-.424-.349-1.56-.288-1.136.076-2.998.56-3.331.893a.631.631 0 0 1-.364.137c-.394 0-4.452 1.999-6.178 3.043-.258.152-.515.243-.56.182-.182-.182-.107-1.332.12-1.711.788-1.393 1-1.984.91-2.453-.122-.515-.455-.94-1.091-1.363-.53-.333-2.09-.348-3.529-.015Zm3.15 1.045c.47.318.424.817-.151 1.847-.454.788-.5.97-.5 2.166V9.16l-1.211.878c-.667.5-1.379 1.015-1.59 1.151-.213.136-.697.56-1.106.924-.666.636-.757.666-1.378.606-1.075-.121-1.893.348-2.71 1.59-1.424 2.135-1.909 3.316-1.47 3.589.091.06 1.06.09 2.166.09 1.696 0 2.12-.045 2.74-.317.803-.334 1.046-.576 1.379-1.303.151-.348.394-.53.939-.727 2.06-.742 2.892-1.09 4.755-2.044 2.105-1.075 2.922-1.514 3.558-1.938.5-.318 2.105-.167 3.15.318.818.378 1.832 1.257 2.272 1.953.893 1.439 1.135 4.165.545 6.012-.167.515-.303 1-.303 1.06 0 .212-1.272 2.332-1.62 2.726-.197.212-.5.59-.667.833-.757 1.09-3.528 2.786-5.588 3.422-.984.303-1.468.348-3.558.348-2.241.015-2.514-.015-3.559-.393-1.71-.606-2.256-.848-3.331-1.56-3.513-2.287-5.603-6.179-5.603-10.449 0-3.513 1.302-6.45 3.998-8.95 1.817-1.71 3.8-2.71 6.526-3.286.757-.166 2-.09 2.317.137ZM27.93 5.586c-.47.651-.863 1.03-1.878 1.863-.485.394-.984.802-1.09.893a7.45 7.45 0 0 1-.833.621 170.86 170.86 0 0 0-2.771 1.848c-.076.075-.318.212-.53.318a44.45 44.45 0 0 0-1.59.863c-.667.363-1.273.666-1.333.666-.06.015-.227-.242-.364-.56-.12-.303-.439-.863-.681-1.227l-.454-.681.363-.273c.455-.348 2.075-1.302 3.15-1.847.454-.227 1.136-.59 1.514-.803a27.25 27.25 0 0 1 1.59-.742c.5-.197 1.03-.439 1.166-.515.5-.272 2.18-.787 2.923-.893 1.075-.152 1.196-.076.818.47Zm-11.963 5.86c.257.319.469.652.469.712 0 .076.106.334.227.576.136.242.212.454.197.47-.045.03-1.136.53-1.863.847-.166.06-.575.227-.908.333-.333.122-.727.273-.863.334-.212.075-.303 0-.44-.318a3.125 3.125 0 0 0-.393-.712c-.227-.242-.227-.288.106-.606.53-.485 2.786-2.226 2.907-2.226.046 0 .303.273.56.59ZM11.06 13.96c1.106.53 1.106 2.166-.015 2.696-.379.182-.939.257-1.953.257-.788 0-1.439-.045-1.439-.09 0-.243 1.272-2.227 1.696-2.666.227-.227.56-.363 1-.409.12 0 .439.091.711.212Z"/>
  <path d="M11.06 13.96c1.106.53 1.106 2.166-.015 2.696-.379.182-.939.257-1.953.257-.788 0-1.439-.045-1.439-.09 0-.243 1.272-2.227 1.696-2.666.227-.227.56-.363 1-.409.12 0 .439.091.711.212Z"/>
</svg>
